build/system/RefuseSmallSolid.svg

<svg xmlns="http://www.w3.org/2000/svg" fill="none" viewBox="0 0 24 24" focusable="false"><path d="M0 0H24V24H0z" transform="rotate(-180 12 12)"/><path fill="#74767B" fill-rule="evenodd" d="M3 12C3 7.02944 7.02944 3 12 3C16.9706 3 21 7.02944 21 12C21 16.9706 16.9706 21 12 21C7.02944 21 3 16.9706 3 12ZM10.2435 9.32442C11.4852 8.50742 13.1705 8.64503 14.2627 9.73726C15.355 10.8295 15.4926 12.5148 14.6756 13.7565L10.2435 9.32442ZM8.81802 8.81802C7.06066 10.5754 7.06066 13.4246 8.81802 15.182C10.5754 16.9393 13.4246 16.9393 15.182 15.182C16.9393 13.4246 16.9393 10.5754 15.182 8.81802C13.4246 7.06066 10.5754 7.06066 8.81802 8.81802ZM9.32428 10.2437C8.50743 11.4854 8.64509 13.1706 9.73726 14.2627C10.8294 15.3549 12.5147 15.4926 13.7563 14.6757L9.32428 10.2437Z"/></svg>

<svg xmlns="http://www.w3.org/2000/svg" fill="none" viewBox="0 0 24 24" focusable="false"><path fill="#74767B" fill-rule="evenodd" d="M3 12c0-4.98 4.02-9 9-9 4.97 0 9 4.02 9 9a9 9 0 0 1-9 9c-4.98 0-9-4.03-9-9m7.24-2.68a3.2 3.2 0 0 1 4.02.41 3.2 3.2 0 0 1 .41 4.02zm-1.43-.51a4.52 4.52 0 0 0 0 6.37 4.52 4.52 0 0 0 6.37 0 4.52 4.52 0 0 0 0-6.37 4.52 4.52 0 0 0-6.37 0m.51 1.43a3.2 3.2 0 0 0 .41 4.02 3.2 3.2 0 0 0 4.02.41z"/></svg>
